X:1
T:We’ll Follow On
T:We’ll Follow On
T:Charles King Langley, Sr.
T:Frances Jane (Fanny) Crosby, 1895
T:Public Domain Courtesy of the Cyber Hymnal™
C:Charles King Langley, Sr.
Z:Public Domain
Z:Courtesy of the Cyber Hymnal™
%%score ( 1 2 ) ( 3 4 )
L:1/8
Q:1/4=113
M:4/4
K:Eb
V:1 treble 
V:2 treble 
V:3 bass 
V:4 bass 
V:1
 (G>F) | E2 E2 (E>F) ([EG]>[FA]) | [Ac]2 [GB]2 [GB]2 (e>c) | [GB]2 [EG]2 [EG]2 E2 | [DF]6 (G>F) | %5
w: 1.~O *|hap- py ones, * that *|sweet- ly sing, In *|yon- der world so|fair; Your *|
w: 2.~We’ll *|sing of Him, * our *|bless- èd Lord, Who *|laid His glo- ry|down; Who *|
w: 3.~We *|fol- low on * with *|trust- ing hearts, For *|o’er life’s trou- bled|way, The *|
 E2 E2 (E>F) (G>A) | [Ec]2 [EB]2 [EB]2 [Ec]2 | E2 E2 [EG]2 [DF]2 | E6 ||"^Refrain" [GB]2 | %10
w: foot- prints on * the *|sands of time, Were|left to guide us|there.||
w: bore our sins * up- *|on the cross, That|we might wear a|crown.|We’ll|
w: same pro- tect- * ing *|hand is ours, That|led you, day by|day.||
 [Ac]2 [EA]2 [EA]2 [Ac]2 | [GB]2 [EG]2 [EG]2 E2 | [DF]2 [Fd]2 [EF]2 [Ec]2 | B6 [DA]2 | %14
w: ||||
w: fol- low on, still|look- ing up, Be-|yond the e- ther|blue, Where,|
w: ||||
 [EG]2 [GB]2 (GF) E2 | [CF]2 [CE]2 !fermata![Ec]2 (E>F) | [EG]2 [EB]2 ([FA][EG]) [DF]2 | E6 |] %18
w: ||||
w: by and by, * thro’|grace di- vine, We’ll *|meet and sing * with|you.|
w: ||||
V:2
 E2 | E2 E2 E2 x2 | x6 A2 | x6 E2 | x6 E2 | E2 E2 E2 E2 | x8 | E2 E2 x4 | E6 || x2 | x8 | x6 E2 | %12
 x8 | (D4 E2) x2 | x4 E2 E2 | x6 E2 | x8 | E6 |] %18
V:3
 (B,>A,) | [E,G,]2 [E,G,]2 (G,>A,) [E,B,]2 | [E,E]2 [E,E]2 [E,E]2 (C>E) | %3
 [E,E]2 [E,B,]2 [E,B,]2 [E,G,]2 | [B,,B,]6 (B,>A,) | [E,G,]2 [E,G,]2 (G,>A,) (B,>F,) | %6
 [E,A,]2 [E,G,]2 [E,G,]2 [A,,A,]2 | [B,,G,]2 [B,,G,]2 [B,,B,]2 [B,,A,]2 | [E,G,]6 || [E,E]2 | %10
 [A,,E]2 [A,,C]2 [A,,C]2 [A,,E]2 | [E,E]2 [E,B,]2 [E,B,]2 [G,B,]2 | %12
 [F,B,]2 [F,B,]2 [F,=A,]2 [F,A,]2 | B,4 G,2 [F,B,]2 | [E,B,]2 [E,E]2 (B,A,) [E,G,]2 | %15
 [A,,A,]2 [A,,A,]2 !fermata![A,,A,]2 [A,,C]2 | [B,,B,]2 [B,,G,]2 [B,,B,]2 [B,,A,]2 | [E,G,]6 |] %18
V:4
 E,2 | x4 E,2 x2 | x6 E,2 | x8 | x6 E,2 | x4 E,2 E,2 | x8 | x8 | x6 || x2 | x8 | x8 | x8 | %13
 B,,2 A,2 x4 | x4 E,2 x2 | x8 | x8 | x6 |] %18

